src/pos-icons/rhombus-outline.svg

<svg height="24" viewBox="0 0 24 24" width="24" xmlns="http://www.w3.org/2000/svg"><path d="m21.5 10.8-8.3-8.3c-.7-.7-1.7-.7-2.4 0l-8.3 8.3c-.7.7-.7 1.7 0 2.4l8.3 8.3c.7.7 1.7.7 2.4 0l8.3-8.3c.6-.7.6-1.7 0-2.4m-1.2 1.2-8.3 8.3-8.3-8.3 8.3-8.3z"/></svg>

<?xml version="1.0" encoding="UTF-8"?><!DOCTYPE svg PUBLIC "-//W3C//DTD SVG 1.1//EN" "http://www.w3.org/Graphics/SVG/1.1/DTD/svg11.dtd"><svg xmlns="http://www.w3.org/2000/svg" xmlns:xlink="http://www.w3.org/1999/xlink" version="1.1" id="mdi-rhombus-outline" width="24" height="24" viewBox="0 0 24 24"><path d="M21.5,10.8L13.2,2.5C12.5,1.8 11.5,1.8 10.8,2.5L2.5,10.8C1.8,11.5 1.8,12.5 2.5,13.2L10.8,21.5C11.5,22.2 12.5,22.2 13.2,21.5L21.5,13.2C22.1,12.5 22.1,11.5 21.5,10.8M20.3,12L12,20.3L3.7,12L12,3.7L20.3,12Z" /></svg>
